icons/semi-truck.svg

<?xml version="1.0" encoding="UTF-8"?><svg xmlns="http://www.w3.org/2000/svg" viewBox="0 0 50 50"><g id="uuid-6e30d597-269f-4982-b050-16dbc7e85c45"><path d="M48.43,23.48c-.09-.09-.22-.15-.35-.15h-3.17l-4.31-6.51c-.09-.14-.25-.22-.42-.22h-8.34v-6.2c0-.28-.22-.5-.5-.5l-30.15-.03h0c-.13,0-.26,.05-.35,.15-.09,.09-.15,.22-.15,.35v24.71c0,.28,.22,.5,.5,.5H6.4c.4,2.56,2.59,4.53,5.26,4.53s4.86-1.96,5.26-4.52h17.08c.39,2.57,2.59,4.54,5.26,4.54s4.87-1.97,5.26-4.53h3.49c.27,0,.5-.22,.5-.5l.07-11.27c0-.13-.05-.26-.15-.36Zm-8.52-5.88l3.8,5.73c-1.79,0-5.38,0-6.7,0v-5.74h2.9ZM1.68,10.87l29.15,.03v6.2s0,.02,0,.03c0,.01,0,.02,0,.03v17.44h-13.85c-.09-2.87-2.44-5.18-5.32-5.18s-5.23,2.3-5.32,5.16H1.68V10.87Zm14.32,23.9c0,2.39-1.95,4.34-4.34,4.34s-4.34-1.95-4.34-4.34,1.95-4.34,4.34-4.34,4.34,1.95,4.34,4.34Zm27.6,.02c0,2.39-1.95,4.34-4.34,4.34s-4.34-1.95-4.34-4.34,1.95-4.34,4.34-4.34,4.34,1.95,4.34,4.34Zm3.91-.19h-2.93c-.1-2.86-2.44-5.15-5.32-5.15s-5.22,2.3-5.32,5.15h-2.1V17.6h4.18v6.23c-.01,.13,.04,.26,.13,.35,.09,.09,.22,.15,.35,.15,0,0,7.16,0,8.13,0h2.93l-.06,10.27Z"/></g><g id="uuid-bdf4cd7d-cbd7-411b-b283-726a995689c7"><text transform="translate(-.32 55.12)" font-family="Roboto-Regular, Roboto" font-size="6"><tspan x="0" y="0">semi-truck</tspan></text></g></svg>

<svg xmlns="http://www.w3.org/2000/svg" viewBox="0 0 50 50"><g id="e115f90a-5f4c-49d2-9b77-1166e22b8e2b" data-name="ICONS"><path d="M48.43,23.48a.51.51,0,0,0-.36-.15H44.9l-4.31-6.51a.5.5,0,0,0-.42-.22H31.83V10.4a.5.5,0,0,0-.5-.5l-30.15,0h0A.5.5,0,0,0,.83,10a.53.53,0,0,0-.15.36V35.08a.5.5,0,0,0,.5.5H6.4a5.32,5.32,0,0,0,10.52,0H34a5.32,5.32,0,0,0,10.52,0H48a.51.51,0,0,0,.5-.5l.06-11.27A.5.5,0,0,0,48.43,23.48ZM39.91,17.6l3.79,5.73H37V17.6ZM1.68,10.87l29.15,0v6.23s0,0,0,0V34.6H17a5.33,5.33,0,0,0-10.65,0H1.68ZM16,34.77a4.34,4.34,0,1,1-4.34-4.35A4.35,4.35,0,0,1,16,34.77Zm27.6,0a4.34,4.34,0,1,1-4.34-4.34A4.35,4.35,0,0,1,43.6,34.79Zm3.91-.19H44.58a5.32,5.32,0,0,0-10.64,0H31.83v-17H36v6.23a.49.49,0,0,0,.15.36.51.51,0,0,0,.35.15H47.57Z"/></g><g id="f080a134-2f6a-43bf-954d-e59b25bf04b5" data-name="LABELS"><text transform="translate(-0.32 55.12)" font-size="6" font-family="Roboto-Regular, Roboto">semi-truck</text></g></svg>
